X: 1
T: Le Reel De L'aveugle
M: 4/4
L: 1/8
R: reel
K: Dmaj
AG |: FDDD EDB,D | A,DFA BAFD | =CEGB =cBAG | FAde fdAG |
FDDD EDB,D | A,DFA BAFD | =CEGB =cBAF |1 ABAF D2AG :|2 ABAF D2cd ||
|: fdAF dAFA | BAGB edcB | ABcd e2gf | ecdf e2cd |
 fdAF dAFA | BAGB edcB | Afed cABc |1 dcde d2cd :|2 dcde d2AG ||
